X:17
T:Fog Bound
C:Roy Watrous, 1987
S:The Watrous Book, 1992
M:2/4
L:1/16
Q:1/4=90
K:A
%%MIDI program 72
%%MIDI transpose 8
%%MIDI ratio 3 1
cd|e2ef edcd|eagf e2Bc|dfdB cecA|BAGF E2cd|e2ef edcd|
eagf e2Bc|dfed cBAG|A2A2 A2::e2|a2ag aece|=gfgd B2TA2|=GBd=g Acea|
gagf e2Bc|dcde fazf|efec A2c2|dfed cBAG|A2A2 A2:|]

